gama.ui.shared/icons_svg/dark/generic/menu.help.svg

<?xml version="1.0" encoding="UTF-8" standalone="no"?>
<!DOCTYPE svg PUBLIC "-//W3C//DTD SVG 1.1//EN" "http://www.w3.org/Graphics/SVG/1.1/DTD/svg11.dtd">
<svg xmlns="http://www.w3.org/2000/svg" xmlns:xl="http://www.w3.org/1999/xlink" version="1.1" xmlns:dc="http://purl.org/dc/elements/1.1/" viewBox="-634.7741 -3167.9315 24.999996 25" width="24.999996" height="25">
  <defs/>
  <g id="SOURCES" stroke-opacity="1" fill="none" stroke="none" fill-opacity="1" stroke-dasharray="none">
    <title>SOURCES</title>
    <g id="SOURCES_Dark">
      <title>Dark</title>
      <g id="Graphic_11296">
        <circle cx="-622.2741" cy="-3155.4315" r="12.000018268838" fill="#666"/>
        <circle cx="-622.2741" cy="-3155.4315" r="12.000018268838" stroke="white" stroke-linecap="round" stroke-linejoin="round" stroke-width=".25"/>
      </g>
      <g id="Graphic_11295">
        <title>?</title>
        <path d="M -619.2903 -3159.0915 C -619.2903 -3161.0915 -620.8303 -3162.6115 -622.8703 -3162.6115 C -625.0103 -3162.6115 -626.4503 -3161.0115 -626.4503 -3159.0915 L -625.4303 -3159.0915 C -625.4303 -3160.4915 -624.4303 -3161.7115 -622.8703 -3161.7115 C -621.4103 -3161.7115 -620.3103 -3160.5915 -620.3103 -3159.0915 C -620.3103 -3158.3115 -620.5903 -3157.8715 -620.9903 -3157.2515 L -622.6703 -3154.7715 C -623.0703 -3154.1915 -623.2503 -3153.7515 -623.2503 -3152.9715 L -623.2503 -3152.0715 L -622.2303 -3152.0715 L -622.2303 -3153.0115 C -622.2303 -3153.3315 -622.1303 -3153.8315 -621.8703 -3154.2115 L -620.1703 -3156.7115 C -619.6303 -3157.4915 -619.2903 -3158.1515 -619.2903 -3159.0915 Z M -622.0703 -3148.2515 L -622.0703 -3149.5915 L -623.4103 -3149.5915 L -623.4103 -3148.2515 Z" fill="#e3e6e1"/>
        <path d="M -619.2903 -3159.0915 C -619.2903 -3161.0915 -620.8303 -3162.6115 -622.8703 -3162.6115 C -625.0103 -3162.6115 -626.4503 -3161.0115 -626.4503 -3159.0915 L -625.4303 -3159.0915 C -625.4303 -3160.4915 -624.4303 -3161.7115 -622.8703 -3161.7115 C -621.4103 -3161.7115 -620.3103 -3160.5915 -620.3103 -3159.0915 C -620.3103 -3158.3115 -620.5903 -3157.8715 -620.9903 -3157.2515 L -622.6703 -3154.7715 C -623.0703 -3154.1915 -623.2503 -3153.7515 -623.2503 -3152.9715 L -623.2503 -3152.0715 L -622.2303 -3152.0715 L -622.2303 -3153.0115 C -622.2303 -3153.3315 -622.1303 -3153.8315 -621.8703 -3154.2115 L -620.1703 -3156.7115 C -619.6303 -3157.4915 -619.2903 -3158.1515 -619.2903 -3159.0915 Z M -622.0703 -3148.2515 L -622.0703 -3149.5915 L -623.4103 -3149.5915 L -623.4103 -3148.2515 Z" stroke="#66727e" stroke-linecap="round" stroke-linejoin="round" stroke-width=".25"/>
      </g>
    </g>
  </g>
</svg>

<svg height="25" viewBox="-634.774 -3167.932 25 25" width="25" xmlns="http://www.w3.org/2000/svg"><g fill="none"><circle cx="-622.274" cy="-3155.432" fill="#666" r="12"/><circle cx="-622.274" cy="-3155.432" r="12" stroke="#fff" stroke-linecap="round" stroke-linejoin="round" stroke-width=".25"/><path d="m-619.2903-3159.0915c0-2-1.54-3.52-3.58-3.52-2.14 0-3.58 1.6-3.58 3.52h1.02c0-1.4 1-2.62 2.56-2.62 1.46 0 2.56 1.12 2.56 2.62 0 .78-.28 1.22-.68 1.84l-1.68 2.48c-.4.58-.58 1.02-.58 1.8v.9h1.02v-.94c0-.32.1-.82.36-1.2l1.7-2.5c.54-.78.88-1.44.88-2.38zm-2.78 10.84v-1.34h-1.34v1.34z" fill="#e3e6e1"/><path d="m-619.2903-3159.0915c0-2-1.54-3.52-3.58-3.52-2.14 0-3.58 1.6-3.58 3.52h1.02c0-1.4 1-2.62 2.56-2.62 1.46 0 2.56 1.12 2.56 2.62 0 .78-.28 1.22-.68 1.84l-1.68 2.48c-.4.58-.58 1.02-.58 1.8v.9h1.02v-.94c0-.32.1-.82.36-1.2l1.7-2.5c.54-.78.88-1.44.88-2.38zm-2.78 10.84v-1.34h-1.34v1.34z" stroke="#66727e" stroke-linecap="round" stroke-linejoin="round" stroke-width=".25"/></g></svg>
